X:5811
T:Gan Ainm
R:Reel
C:
S:
H:
N:
D:R na G Live Recording
Z:Adrian Scahill
M:4/4
L:1/8
K:D
Addc A3B|cBcd efcdc|Addc AEAB|cAGE EDD2:||\
d2fd Adfd|cdef g2fe|d2fd Adfd|eaag eddc|\
d2fd Adfd|cdef g2fg|afge d2cd|eaag eddc||
